!!!COM:	Pierre de la Rue
**kern	**kern
*part2	*part1
*staff2	*staff1
*clefF4	*clefGv2
*k[b-]	*k[b-]
*M3/1	*M3/1
=1-	=1-
1r	1.c
1r	.
.	2c
[1G	1e
=2	=2
2G]	1d
2G	.
1A	2.c
.	4d
1G	2e
.	[2d
=3	=3
0F	2d]
.	4c
.	4B-
.	1A
1F	2r
.	[2d
=4	=4
1G	2d]
.	2e
2A	2f
2G	2.g
1B-	.
.	4f
.	4e
.	4d
=5	=5
2.A	2c
.	1f
4D	.
2.A	.
.	2.e
4F	.
1G	.
.	4c
.	2d
=6	=6
1C	2e
.	1c
1F	.
.	1f
2D	.
[2G	[2e
=7	=7
4G]	4e]
4F	4c
4E	2d
4D	.
2C	2e
1F	2c
.	2f
2G	[2e
=8	=8
2A	4e]
.	4c
2B-	2d
2G	2e
2.A	2.f
4G	4e
4F	4d
4E	4c
=9	=9
2F	2d
2G	2.e
1C	.
.	4d
.	1c
1D	.
.	2B-
=10	=10
0.C	0.c
==	==
*-	*-
